build/assets/img/svg/icon-add-menu.svg

<svg width="24" height="24" viewBox="0 0 24 24" fill="none" xmlns="http://www.w3.org/2000/svg">
<path d="M3.37499 3.96974L2.89011 3.48486L2.35986 4.01511L3.10986 4.76511C3.18299 4.83824 3.27899 4.87499 3.37499 4.87499C3.47099 4.87499 3.56699 4.83824 3.64011 4.76511L5.51511 2.89011L4.98486 2.35986L3.37499 3.96974Z" fill="url(#paint0_linear)"/>
<path d="M10.875 3.96974L10.3901 3.48486L9.85986 4.01511L10.6099 4.76511C10.683 4.83824 10.779 4.87499 10.875 4.87499C10.971 4.87499 11.067 4.83824 11.1401 4.76511L13.0151 2.89011L12.4849 2.35986L10.875 3.96974Z" fill="url(#paint1_linear)"/>
<path d="M18.375 3.96974L17.8901 3.48486L17.3599 4.01511L18.1099 4.76511C18.183 4.83824 18.279 4.87499 18.375 4.87499C18.471 4.87499 18.567 4.83824 18.6401 4.76511L20.5151 2.89011L19.9849 2.35986L18.375 3.96974Z" fill="url(#paint2_linear)"/>
<path d="M4.87499 21.375C4.97099 21.375 5.06699 21.3382 5.14011 21.2651L7.01511 19.3901L6.48486 18.8599L4.87499 20.4697L4.39011 19.9849L3.85986 20.5151L4.60986 21.2651C4.68299 21.3382 4.77899 21.375 4.87499 21.375Z" fill="url(#paint3_linear)"/>
<path d="M12.375 21.375C12.471 21.375 12.567 21.3382 12.6401 21.2651L14.5151 19.3901L13.9849 18.8599L12.375 20.4697L11.8901 19.9849L11.3599 20.5151L12.1099 21.2651C12.183 21.3382 12.279 21.375 12.375 21.375Z" fill="url(#paint4_linear)"/>
<path d="M19.875 21.375C19.971 21.375 20.067 21.3382 20.1401 21.2651L22.0151 19.3901L21.4849 18.8599L19.875 20.4697L19.3901 19.9849L18.8599 20.5151L19.6099 21.2651C19.683 21.3382 19.779 21.375 19.875 21.375Z" fill="url(#paint5_linear)"/>
<path d="M23.25 10.5V5.25C23.25 4.33763 22.5941 3.57712 21.7294 3.411C21.5602 1.91587 20.2894 0.75 18.75 0.75C17.223 0.75 15.9615 1.8975 15.7759 3.375H14.2238C14.0385 1.8975 12.777 0.75 11.25 0.75C9.723 0.75 8.4615 1.8975 8.27588 3.375H6.72375C6.5385 1.8975 5.277 0.75 3.75 0.75C2.09588 0.75 0.75 2.09588 0.75 3.75C0.75 5.40412 2.09588 6.75 3.75 6.75C5.277 6.75 6.5385 5.6025 6.72412 4.125H8.27625C8.46187 5.6025 9.72337 6.75 11.2504 6.75C12.7774 6.75 14.0389 5.6025 14.2245 4.125H15.7766C15.9622 5.6025 17.2237 6.75 18.7507 6.75C20.2575 6.75 21.5047 5.63212 21.7159 4.18313C22.1685 4.32825 22.5 4.749 22.5 5.25V10.5C22.5 11.1202 21.9953 11.625 21.375 11.625H15.1553L16.0151 10.7651L15.4849 10.2349L14.0947 11.625H12.1553L13.0151 10.7651L12.4849 10.2349L11.0948 11.625H9.15525L10.0151 10.7651L9.48487 10.2349L8.09475 11.625H2.625C1.59113 11.625 0.75 12.4661 0.75 13.5V18.75C0.75 19.6624 1.40587 20.4229 2.27062 20.589C2.43975 22.0841 3.71062 23.25 5.25 23.25C6.777 23.25 8.0385 22.1025 8.22412 20.625H9.77625C9.96187 22.1025 11.2234 23.25 12.7504 23.25C14.2774 23.25 15.5389 22.1025 15.7245 20.625H17.2766C17.4622 22.1025 18.7237 23.25 20.2507 23.25C21.9049 23.25 23.2507 21.9041 23.2507 20.25C23.2507 18.5959 21.9049 17.25 20.2507 17.25C18.7237 17.25 17.4622 18.3975 17.2766 19.875H15.7245C15.5389 18.3975 14.2774 17.25 12.7504 17.25C11.2234 17.25 9.96187 18.3975 9.77625 19.875H8.22412C8.0385 18.3975 6.777 17.25 5.25 17.25C3.74325 17.25 2.496 18.3679 2.28487 19.8169C1.8315 19.6718 1.5 19.251 1.5 18.75V13.5C1.5 12.8798 2.00475 12.375 2.625 12.375H8.09475L9.48487 13.7651L10.0151 13.2349L9.15525 12.375H11.0948L12.4849 13.7651L13.0151 13.2349L12.1553 12.375H14.0947L15.4849 13.7651L16.0151 13.2349L15.1553 12.375H21.375C22.4089 12.375 23.25 11.5339 23.25 10.5ZM3.75 6C2.50912 6 1.5 4.99088 1.5 3.75C1.5 2.50912 2.50912 1.5 3.75 1.5C4.99088 1.5 6 2.50912 6 3.75C6 4.99088 4.99088 6 3.75 6ZM11.25 6C10.0091 6 9 4.99088 9 3.75C9 2.50912 10.0091 1.5 11.25 1.5C12.4909 1.5 13.5 2.50912 13.5 3.75C13.5 4.99088 12.4909 6 11.25 6ZM18.75 6C17.5091 6 16.5 4.99088 16.5 3.75C16.5 2.50912 17.5091 1.5 18.75 1.5C19.9909 1.5 21 2.50912 21 3.75C21 4.99088 19.9909 6 18.75 6ZM20.25 18C21.4909 18 22.5 19.0091 22.5 20.25C22.5 21.4909 21.4909 22.5 20.25 22.5C19.0091 22.5 18 21.4909 18 20.25C18 19.0091 19.0091 18 20.25 18ZM12.75 18C13.9909 18 15 19.0091 15 20.25C15 21.4909 13.9909 22.5 12.75 22.5C11.5091 22.5 10.5 21.4909 10.5 20.25C10.5 19.0091 11.5091 18 12.75 18ZM5.25 18C6.49088 18 7.5 19.0091 7.5 20.25C7.5 21.4909 6.49088 22.5 5.25 22.5C4.00912 22.5 3 21.4909 3 20.25C3 19.0091 4.00912 18 5.25 18Z" fill="#0A3D76"/>
<defs>
<linearGradient id="paint0_linear" x1="5.41785" y1="3.61743" x2="2.45401" y2="3.53759" gradientUnits="userSpaceOnUse">
<stop stop-color="#A62E41"/>
<stop offset="1" stop-color="#E13152"/>
</linearGradient>
<linearGradient id="paint1_linear" x1="12.9178" y1="3.61743" x2="9.95401" y2="3.53759" gradientUnits="userSpaceOnUse">
<stop stop-color="#A62E41"/>
<stop offset="1" stop-color="#E13152"/>
</linearGradient>
<linearGradient id="paint2_linear" x1="20.4178" y1="3.61743" x2="17.454" y2="3.53759" gradientUnits="userSpaceOnUse">
<stop stop-color="#A62E41"/>
<stop offset="1" stop-color="#E13152"/>
</linearGradient>
<linearGradient id="paint3_linear" x1="6.91784" y1="20.1174" x2="3.95401" y2="20.0376" gradientUnits="userSpaceOnUse">
<stop stop-color="#A62E41"/>
<stop offset="1" stop-color="#E13152"/>
</linearGradient>
<linearGradient id="paint4_linear" x1="14.4178" y1="20.1174" x2="11.454" y2="20.0376" gradientUnits="userSpaceOnUse">
<stop stop-color="#A62E41"/>
<stop offset="1" stop-color="#E13152"/>
</linearGradient>
<linearGradient id="paint5_linear" x1="21.9178" y1="20.1174" x2="18.954" y2="20.0376" gradientUnits="userSpaceOnUse">
<stop stop-color="#A62E41"/>
<stop offset="1" stop-color="#E13152"/>
</linearGradient>
</defs>
</svg>

<svg width="24" height="24" fill="none" xmlns="http://www.w3.org/2000/svg"><path d="M3.375 3.97l-.485-.485-.53.53.75.75a.374.374 0 00.53 0L5.515 2.89l-.53-.53-1.61 1.61z" fill="url(#paint0_linear)"/><path d="M10.875 3.97l-.485-.485-.53.53.75.75a.374.374 0 00.53 0l1.875-1.875-.53-.53-1.61 1.61z" fill="url(#paint1_linear)"/><path d="M18.375 3.97l-.485-.485-.53.53.75.75a.374.374 0 00.53 0l1.875-1.875-.53-.53-1.61 1.61z" fill="url(#paint2_linear)"/><path d="M4.875 21.375a.374.374 0 00.265-.11l1.875-1.875-.53-.53-1.61 1.61-.485-.485-.53.53.75.75c.073.073.169.11.265.11z" fill="url(#paint3_linear)"/><path d="M12.375 21.375a.374.374 0 00.265-.11l1.875-1.875-.53-.53-1.61 1.61-.485-.485-.53.53.75.75c.073.073.169.11.265.11z" fill="url(#paint4_linear)"/><path d="M19.875 21.375a.374.374 0 00.265-.11l1.875-1.875-.53-.53-1.61 1.61-.485-.485-.53.53.75.75c.073.073.169.11.265.11z" fill="url(#paint5_linear)"/><path d="M23.25 10.5V5.25c0-.912-.656-1.673-1.52-1.839A3.003 3.003 0 0018.75.75a3.003 3.003 0 00-2.974 2.625h-1.552A3.002 3.002 0 0011.25.75a3.003 3.003 0 00-2.974 2.625H6.724A3.002 3.002 0 003.75.75c-1.654 0-3 1.346-3 3s1.346 3 3 3a3.003 3.003 0 002.974-2.625h1.552A3.003 3.003 0 0011.25 6.75a3.003 3.003 0 002.975-2.625h1.552A3.003 3.003 0 0018.75 6.75a3.002 3.002 0 002.965-2.567c.453.145.784.566.784 1.067v5.25c0 .62-.505 1.125-1.125 1.125h-6.22l.86-.86-.53-.53-1.39 1.39h-1.94l.86-.86-.53-.53-1.39 1.39h-1.94l.86-.86-.53-.53-1.39 1.39h-5.47A1.877 1.877 0 00.75 13.5v5.25c0 .912.656 1.673 1.52 1.839a3.003 3.003 0 002.98 2.661 3.003 3.003 0 002.974-2.625h1.552a3.003 3.003 0 002.974 2.625 3.003 3.003 0 002.975-2.625h1.552a3.003 3.003 0 002.974 2.625c1.654 0 3-1.346 3-3s-1.346-3-3-3a3.003 3.003 0 00-2.974 2.625h-1.553a3.003 3.003 0 00-2.974-2.625 3.003 3.003 0 00-2.974 2.625H8.224A3.003 3.003 0 005.25 17.25a3.002 3.002 0 00-2.965 2.567A1.123 1.123 0 011.5 18.75V13.5c0-.62.505-1.125 1.125-1.125h5.47l1.39 1.39.53-.53-.86-.86h1.94l1.39 1.39.53-.53-.86-.86h1.94l1.39 1.39.53-.53-.86-.86h6.22A1.877 1.877 0 0023.25 10.5zM3.75 6C2.51 6 1.5 4.99 1.5 3.75S2.51 1.5 3.75 1.5 6 2.51 6 3.75 4.99 6 3.75 6zm7.5 0C10.01 6 9 4.99 9 3.75s1.01-2.25 2.25-2.25 2.25 1.01 2.25 2.25S12.49 6 11.25 6zm7.5 0c-1.24 0-2.25-1.01-2.25-2.25s1.01-2.25 2.25-2.25S21 2.51 21 3.75 19.99 6 18.75 6zm1.5 12c1.24 0 2.25 1.01 2.25 2.25s-1.01 2.25-2.25 2.25S18 21.49 18 20.25 19.01 18 20.25 18zm-7.5 0c1.24 0 2.25 1.01 2.25 2.25s-1.01 2.25-2.25 2.25-2.25-1.01-2.25-2.25S11.51 18 12.75 18zm-7.5 0c1.24 0 2.25 1.01 2.25 2.25S6.49 22.5 5.25 22.5 3 21.49 3 20.25 4.01 18 5.25 18z" fill="#0A3D76"/><defs><linearGradient id="paint0_linear" x1="5.418" y1="3.617" x2="2.454" y2="3.538" gradientUnits="userSpaceOnUse"><stop stop-color="#A62E41"/><stop offset="1" stop-color="#E13152"/></linearGradient><linearGradient id="paint1_linear" x1="12.918" y1="3.617" x2="9.954" y2="3.538" gradientUnits="userSpaceOnUse"><stop stop-color="#A62E41"/><stop offset="1" stop-color="#E13152"/></linearGradient><linearGradient id="paint2_linear" x1="20.418" y1="3.617" x2="17.454" y2="3.538" gradientUnits="userSpaceOnUse"><stop stop-color="#A62E41"/><stop offset="1" stop-color="#E13152"/></linearGradient><linearGradient id="paint3_linear" x1="6.918" y1="20.117" x2="3.954" y2="20.038" gradientUnits="userSpaceOnUse"><stop stop-color="#A62E41"/><stop offset="1" stop-color="#E13152"/></linearGradient><linearGradient id="paint4_linear" x1="14.418" y1="20.117" x2="11.454" y2="20.038" gradientUnits="userSpaceOnUse"><stop stop-color="#A62E41"/><stop offset="1" stop-color="#E13152"/></linearGradient><linearGradient id="paint5_linear" x1="21.918" y1="20.117" x2="18.954" y2="20.038" gradientUnits="userSpaceOnUse"><stop stop-color="#A62E41"/><stop offset="1" stop-color="#E13152"/></linearGradient></defs></svg>
